image/icons/favicon.svg

<svg width="122" height="127" viewBox="0 0 122 127" fill="none" xmlns="http://www.w3.org/2000/svg">
<path d="M1.23615 104.726C1.41361 103.652 1.86359 102.85 2.0664 102.499C2.36428 101.976 2.64948 101.631 2.7192 101.545C3.32763 100.789 4.80435 98.5757 8.18242 93.0484C10.2993 84.6249 12.3971 76.175 15.1287 67.9437C20.0785 53.0386 29.2557 41.6991 42.2293 33.6931C46.539 31.0355 50.8488 28.3713 55.1902 25.7733C55.9824 25.3028 55.9824 24.9847 55.5515 24.2292C53.7769 21.0878 52.129 17.8602 50.3291 14.7387C46.7292 8.50228 50.8551 1.86821 55.862 1.17895C55.9127 1.17233 55.9444 1.05965 55.9887 1C59.1767 1 62.371 1 65.5589 1C66.9912 1.46392 68.4046 1.94111 69.5961 2.96173C72.8981 5.78502 73.684 10.4308 71.4784 14.5001C69.7165 17.7475 67.9292 20.9751 66.0976 24.1761C65.6666 24.9317 65.6983 25.2299 66.4715 25.7071C72.0235 29.1202 77.7339 32.2616 83.0767 36.0326C95.6573 44.9001 103.871 57.1012 108.022 72.331C110.298 80.675 112.573 89.0189 114.836 97.3629C115.013 98.019 115.324 98.4962 115.85 98.9071C117.345 100.08 118.562 100.749 119.418 101.856C119.779 102.327 119.963 102.718 120.178 103.195C120.66 104.242 121.091 105.7 120.983 111.128C120.971 111.672 120.952 112.44 120.914 113.381C120.882 114.117 120.787 115.091 120.521 116.211C120.508 116.258 120.261 117.292 119.893 118.219C118.486 121.758 115.526 123.846 115.526 123.846C113.86 125.158 112.674 125.556 111.889 125.662C111.635 125.695 110.177 125.874 110.177 125.874C108.567 125.914 106.958 125.96 105.348 126C74.4953 126 43.6427 126 12.79 126C12.4161 125.742 11.9978 125.934 11.6048 125.874C10.014 125.629 6.09094 124.774 3.79664 121.454C2.87765 120.121 2.36428 118.604 2.10443 117.842C1.20446 115.191 1.07135 112.884 1.02699 111.903C0.976285 110.744 1.00798 109.571 1.03333 108.782C1.06502 107.781 1.15376 107.41 1.17911 106.25C1.2108 105.243 1.16009 105.177 1.23615 104.726Z" fill="#020203" stroke="white" stroke-miterlimit="10"/>
<path d="M71.2565 34.0143C71.5173 34.0473 71.6826 34.0275 71.7971 34.0935C77.0175 37.247 82.2825 40.3081 86.8099 44.5501C94.9744 52.203 100.545 61.5117 103.59 72.4632C105.682 79.9907 107.736 87.5248 109.803 95.0523C109.879 95.3228 109.924 95.5933 110 95.9364C108.957 96.0023 107.997 96.2596 107.088 96.6423C106.019 97.0975 105.848 97.4999 104.493 98.1399C103.482 98.6215 102.77 98.9579 101.861 98.9183C101.091 98.892 100.691 98.6149 99.4891 97.9815C97.2127 96.794 96.0808 96.1541 94.8663 96.0155C93.7981 95.8902 92.6917 95.976 91.5408 96.286C90.3199 96.6225 89.258 97.2888 88.2279 98.0277C86.5301 99.2482 84.8006 99.2614 83.1155 98.0277C79.313 95.2436 75.5487 95.2569 71.7589 98.0607C70.1247 99.268 68.3824 99.2944 66.7483 98.0871C62.914 95.2568 59.1305 95.2304 55.2835 98.0673C53.5031 99.3801 51.7163 99.169 49.974 97.8826C47.03 95.6989 43.9015 95.3228 40.6077 96.9458C40.0163 97.236 39.4631 97.6385 38.9227 98.0211C37.174 99.2614 35.4317 99.268 33.7085 98.0013C32.1189 96.8336 30.4084 96.0419 28.4245 95.9825C26.4088 95.9232 24.5965 96.5235 22.9306 97.6978C20.4825 99.4263 19.2616 99.4329 16.8517 97.7242C15.5354 96.794 14.1174 96.1739 12.5341 96.0221C12.0763 95.9759 11.9046 95.8572 12.0508 95.369C15.0331 85.3873 16.9852 75.0626 20.8322 65.3778C25.5758 53.4367 33.5559 44.2863 44.2449 37.6956C49.3636 34.5355 54.5269 31.448 59.6647 28.3208C60.0526 28.0833 60.3705 27.7271 60.822 28.3406C63.925 32.5497 67.4477 36.4157 70.1692 40.9282C73.9272 47.1627 76.1909 54.0107 77.8569 61.1093C78.0158 61.7757 78.1494 62.4552 78.3846 63.0951C78.7852 64.1639 79.9425 64.8104 80.9218 64.5993C82.0472 64.3552 82.8103 63.3854 82.7976 62.1649C82.7849 60.8982 82.3525 59.7041 82.0536 58.4968C80.1778 50.9495 77.5771 43.7123 73.4185 37.1612C72.7509 36.1188 72.0259 35.1292 71.2565 34.0143Z" fill="#FF8F00"/>
<path d="M96.5464 56.4584C98.4099 59.5231 100.985 63.7502 102.842 69.6681C103.238 70.9362 104.158 74.2585 105.99 80.8963C107.406 86.0349 106.921 84.3771 107.249 85.5197C109.257 92.534 110.189 94.1787 109.968 95.4666C109.937 95.6581 109.874 95.8431 109.767 96.0875C108.206 99.7399 101.451 98.9738 101.029 98.8483C100.871 98.802 100.727 98.7492 100.727 98.7492C100.481 98.6369 100.299 98.5312 100.173 98.452C100.11 98.4124 100.072 98.3859 100.034 98.3463C99.8452 98.1614 99.8138 97.9104 99.8075 97.8774C99.7508 97.5736 96.8297 86.7152 92.7755 71.6496C92.7755 71.6496 90.1692 58.5918 82.0732 45.2302C80.3734 42.4232 78.5415 40.237 78.2959 39.9464C74.8775 35.8976 71.9564 34.0681 72.0005 34.002C72.1012 33.8567 87.4999 41.5976 96.5464 56.4584Z" fill="#D46613"/>
<path d="M60.7499 121C45.1056 121 29.4613 121 13.817 121C11.3251 121 9.2337 120.141 7.76526 118.584C6.53838 117.285 5.87092 115.099 5.81371 114.937C5.41322 113.732 5.27973 112.697 5.17802 111.939C5.07631 111.141 4.93645 110.065 5.0318 108.685C5.10809 107.575 5.17166 106.627 5.62935 105.524C6.46846 103.501 7.98776 102.493 8.51538 102.134C10.4479 100.828 12.1197 100.598 14.0204 102.026C16.4488 103.853 19.0615 104.557 21.9729 103.752C23.1553 103.42 24.1851 102.764 25.1895 102.04C27.0902 100.673 28.5841 100.679 30.4911 102.019C34.4705 104.814 37.7126 104.814 41.6538 102.019C43.5482 100.679 45.0675 100.673 46.9618 102.013C50.9412 104.821 54.1133 104.834 58.1118 101.999C59.9108 100.72 61.6335 100.734 63.4262 102.019C67.3674 104.841 70.5841 104.807 74.5762 102.006C76.4642 100.679 77.9707 100.686 79.8842 102.033C83.7873 104.794 87.0547 104.794 90.9388 102.046C92.8904 100.666 94.3969 100.632 96.3422 102.06C100.048 104.787 103.71 104.753 107.409 102.04C109.406 100.578 110.995 100.828 113.01 102.182C114.625 103.264 115.419 104.712 115.75 105.342C116.608 106.939 116.805 108.373 116.9 109.084C117.263 111.872 116.532 114.017 116.385 114.429C115.451 117.062 113.792 118.523 113.385 118.868C112.895 119.281 111.128 120.777 108.611 120.966C108.147 121 107.676 120.993 107.206 120.993C91.727 121 76.2353 121 60.7499 121Z" fill="white"/>
<path d="M117.996 111.051C117.912 114.105 116.415 116.263 115.81 117.138C115.66 117.355 115.478 117.62 115.217 117.925C115.217 117.925 115.061 118.115 114.899 118.285C113.708 119.554 111.931 120.348 111.931 120.355C111.261 120.653 110.74 120.796 110.519 120.85C110.239 120.918 109.874 120.992 109.751 120.999C108.703 121.06 107.571 117.708 106.36 114.329C105.364 111.546 104.453 108.73 103.483 105.941C103.366 105.609 103.295 105.256 103.191 104.917C103.191 104.917 102.937 104.136 103.015 104.102C103.021 104.102 103.021 104.102 103.054 104.096C103.1 104.089 103.139 104.082 103.145 104.082C103.217 104.068 103.451 104.041 103.516 104.035C103.672 104.014 103.796 103.994 103.978 103.953C104.024 103.946 104.154 103.912 104.434 103.838C104.635 103.783 104.831 103.729 105.019 103.668C105.189 103.614 105.462 103.505 105.865 103.322C106.555 103.003 106.809 102.799 108.013 102.08C108.989 101.49 109.224 101.381 109.49 101.293C109.809 101.178 110.265 101.022 110.811 101.001C111.996 100.967 112.914 101.626 114.072 102.453C114.573 102.813 114.859 103.078 115.003 103.227C115.504 103.722 115.803 104.177 116.05 104.564C116.207 104.801 116.675 105.548 117.072 106.518C117.398 107.299 118.055 108.914 117.996 111.051Z" fill="#E2E1E1"/>
<path d="M61.0929 6.01439C62.113 6.01439 63.127 5.98773 64.1472 6.02107C67.1461 6.10775 68.9098 9.09494 67.5148 11.9355C65.7634 15.4961 63.846 18.9634 61.9779 22.4573C61.5968 23.1708 60.4415 23.1841 60.0605 22.4773C58.1739 18.95 56.2258 15.4561 54.4682 11.8554C53.1224 9.10828 54.8247 6.15443 57.7007 6.02774C58.8314 5.9744 59.9622 6.01439 61.0929 6.01439Z" fill="#FF8F00"/>
<path d="M84.9978 72.5967C84.9425 73.962 83.754 75.0722 82.4273 74.9963C81.0454 74.9205 79.9467 73.762 80.002 72.4312C80.0642 70.9487 81.1766 69.9281 82.6623 70.004C84.0719 70.0729 85.0531 71.1624 84.9978 72.5967Z" fill="#020203"/>
<path d="M26.5789 115.991C22.8075 115.991 19.0361 116.015 15.2646 115.985C11.6752 115.954 9.10231 113.679 9.00191 110.511C8.95798 109.118 9.67337 108.212 10.9661 108.027C12.2211 107.849 13.2503 108.551 13.4762 109.913C13.6895 111.171 14.4175 111.467 15.5784 111.467C23.1213 111.442 30.6641 111.448 38.2133 111.46C40.077 111.46 41.0936 112.36 40.9932 113.87C40.9242 114.887 40.3657 115.559 39.3805 115.83C38.9098 115.96 38.3952 115.991 37.8995 115.991C34.1218 115.997 30.3504 115.991 26.5789 115.991Z" fill="#020203"/>
<path d="M48.5491 116.999C47.2098 117.04 46.0499 115.934 46.0016 114.58C45.9533 113.198 47.0027 112.064 48.3765 112.002C49.8125 111.941 50.9931 113.054 51 114.463C51.0069 115.81 49.8954 116.965 48.5491 116.999Z" fill="#020203"/>
<path d="M49.9768 38.1731C50.357 38.8637 46.0442 41.3378 38.3284 49.3971C32.8937 55.0761 30.6999 58.3749 30.1328 57.9659C29.4472 57.4631 31.454 51.6834 35.287 46.9967C41.0831 39.9163 49.472 37.2612 49.9768 38.1731Z" fill="#FBCA71"/>
<path d="M56.8471 9.63229C56.4646 11.5599 57.4341 12.8666 57.1439 12.9908C56.7812 13.1445 54.6377 11.347 55.0532 9.4608C55.4225 7.77563 57.6715 6.79411 57.9683 7.03654C58.1926 7.21983 57.1637 8.01217 56.8471 9.63229Z" fill="#FBCA71"/>
<path d="M65.842 12.1762C66.6493 9.31244 66.5736 8.05836 67.0025 8.00221C67.362 7.9523 67.8728 8.75714 67.98 9.47465C68.1314 10.5103 67.4061 10.7162 66.3276 13.0622C66.0817 13.6986 65.8294 14.0667 65.5582 14.5097C65.4005 14.7717 65.5014 14.622 64.7572 15.9509C64.7572 15.9509 64.6059 16.2192 64.3599 16.5686C64.2401 16.7433 64.0382 17.0178 64.0067 16.9991C63.9626 16.9741 64.1455 16.5811 64.2905 16.2691C64.3851 16.0632 65.0473 14.597 65.4447 13.4864C65.6024 13.031 65.6907 12.7066 65.842 12.1762Z" fill="#D46613"/>
<path d="M31.1327 83.9323C29.4324 84.2361 28.5917 84.4343 26.9292 84.9496C26.5183 85.0751 26 84.9826 26 84.4872C26 84.2362 26.0695 83.9851 26.4804 83.853C26.6384 83.8002 26.8217 83.4765 26.8217 83.0604C26.8217 79.1565 26.8281 77.2079 26.8281 73.3106C26.8281 72.8747 26.6511 72.6633 26.4867 72.7095C26.0758 72.8416 26.0063 72.6369 26.0063 72.3925C26.0063 71.897 26.5246 71.5668 26.9355 71.4413C29.2048 70.7411 30.3679 70.49 32.7004 70.1862C33.1934 70.1201 33.5853 70.0409 33.9709 70.0079C34.5588 69.955 34.8369 70.1664 34.8369 70.7014C34.8369 71.1044 34.8559 71.3884 34.7611 72.1943C34.6157 73.4229 34.2617 73.6277 34.0405 73.6475C33.5221 73.6937 33.5411 72.6237 33.1176 71.9895C32.713 71.3752 31.866 71.5734 30.842 71.7649C30.3679 71.8508 30.1277 71.9036 29.6599 72.0093C29.2806 72.0952 29.2238 72.2802 29.2238 72.6831C29.2238 74.2816 29.2238 75.0743 29.2238 76.6728C29.2238 76.6728 30.0202 76.0519 31.689 75.7877C33.598 75.4838 36 76.3227 36 79.1235C35.9874 82.4989 32.9596 83.6086 31.1327 83.9323ZM30.842 77.1881C30.0013 77.3466 29.2238 77.6438 29.2238 78.1194C29.2238 79.9029 29.2238 80.8013 29.2238 82.5848C29.2238 82.9283 29.3881 82.9811 29.6599 82.9217C30.2225 82.7962 30.5006 82.7433 31.0632 82.6376C32.4349 82.3932 33.3578 81.3099 33.3578 79.5198C33.3578 77.558 32.3591 76.9106 30.842 77.1881Z" fill="#020203"/>
<path d="M48.0317 87.9825C47.4443 87.8008 47.4314 86.246 47.1151 85.5326C46.844 84.9134 46.5664 84.8259 45.6563 84.6105C43.5261 84.1124 42.4481 83.9442 40.2856 83.7759C39.6853 83.7288 39.0204 83.6951 38.8139 84.2336C38.4137 85.2297 38.2846 86.3941 37.7165 86.3874C37.0194 86.3806 37 84.523 37 83.1836C37 82.4837 37.3228 82.3423 37.7165 82.3423C37.9037 82.3423 38.3233 82.275 38.5492 82.026C39.2657 81.2116 40.0984 79.8655 40.5503 75.4907C40.6665 74.4676 40.6858 73.5792 40.6858 73.0879C40.6858 71.3178 40.0081 71.163 39.8015 71.1495C39.369 71.1226 39.3303 70.887 39.3303 70.638C39.3303 70.1534 39.8402 69.9649 40.3308 70.0053C43.255 70.2409 44.7138 70.5033 47.5605 71.3379C47.9801 71.4591 48.5288 71.7956 48.5288 72.3004C48.5288 72.5562 48.4578 72.7581 48.0382 72.6302C47.8768 72.5764 47.6896 72.7985 47.6896 73.2427C47.6896 77.2069 47.6832 79.1924 47.6832 83.1567C47.6832 83.8163 48.0511 83.9307 48.2318 83.9846C48.6514 84.1192 49 84.1797 49 84.7585C49 86.3873 48.7483 88.1979 48.0317 87.9825ZM45.2431 72.6369C45.2431 72.2264 45.1915 72.0379 44.7977 71.9572C43.8811 71.7687 43.4228 71.6879 42.4997 71.5533C42.0866 71.4927 42.0285 71.6677 42.0285 72.0716C42.0285 72.9062 41.9188 75.5108 41.6477 77.4088C41.2604 80.128 40.518 81.8779 39.9887 82.4433C41.9188 82.5779 42.8806 82.7125 44.7848 83.1096C45.1786 83.1904 45.2302 83.049 45.2302 82.6586C45.2367 78.654 45.2367 76.6483 45.2431 72.6369Z" fill="#020203"/>
</svg>

<svg width="122" height="127" fill="none" xmlns="http://www.w3.org/2000/svg"><path d="M1.236 104.726c.178-1.074.628-1.876.83-2.227.298-.523.583-.868.653-.954.609-.756 2.085-2.97 5.463-8.497 2.117-8.423 4.215-16.873 6.947-25.104 4.95-14.905 14.127-26.245 27.1-34.25 4.31-2.659 8.62-5.323 12.961-7.92.792-.471.792-.79.361-1.545-1.774-3.141-3.422-6.369-5.222-9.49-3.6-6.237.526-12.87 5.533-13.56.05-.007.082-.12.127-.179h9.57c1.432.464 2.846.941 4.037 1.962 3.302 2.823 4.088 7.469 1.882 11.538a489.552 489.552 0 0 1-5.38 9.676c-.431.756-.4 1.054.374 1.531 5.552 3.413 11.262 6.555 16.605 10.326C95.657 44.9 103.87 57.1 108.022 72.33c2.276 8.344 4.551 16.688 6.814 25.032.177.656.488 1.133 1.014 1.544 1.495 1.173 2.712 1.842 3.568 2.949.361.471.545.862.76 1.339.482 1.047.913 2.505.805 7.933-.012.544-.031 1.312-.069 2.253-.032.736-.127 1.71-.393 2.83-.013.047-.26 1.081-.628 2.008-1.407 3.539-4.367 5.627-4.367 5.627-1.666 1.312-2.852 1.71-3.637 1.816-.254.033-1.712.212-1.712.212-1.61.04-3.219.086-4.829.126H12.79c-.374-.258-.792-.066-1.185-.126-1.591-.245-5.514-1.1-7.808-4.42-.92-1.333-1.433-2.85-1.693-3.612-.9-2.651-1.033-4.958-1.077-5.939a41.954 41.954 0 0 1 .006-3.121c.032-1.001.12-1.372.146-2.532.032-1.007-.019-1.073.057-1.524z" fill="#020203" stroke="#fff" stroke-miterlimit="10"/><path d="M71.257 34.014c.26.033.426.014.54.08 5.22 3.153 10.486 6.214 15.013 10.456 8.164 7.653 13.735 16.962 16.78 27.913 2.092 7.528 4.146 15.062 6.213 22.59.076.27.121.54.197.883a8.878 8.878 0 0 0-2.912.706c-1.069.456-1.24.858-2.595 1.498-1.011.481-1.723.818-2.632.778-.77-.026-1.17-.303-2.372-.937-2.276-1.187-3.408-1.827-4.623-1.965-1.068-.126-2.174-.04-3.325.27-1.221.337-2.283 1.003-3.313 1.742-1.698 1.22-3.427 1.233-5.112 0-3.803-2.784-7.567-2.771-11.357.033-1.634 1.207-3.377 1.233-5.01.026-3.835-2.83-7.618-2.857-11.465-.02-1.78 1.313-3.568 1.102-5.31-.184-2.944-2.184-6.072-2.56-9.366-.937-.592.29-1.145.692-1.685 1.075-1.749 1.24-3.491 1.247-5.215-.02-1.59-1.167-3.3-1.96-5.284-2.019-2.015-.059-3.828.541-5.493 1.716-2.448 1.728-3.67 1.735-6.08.026-1.316-.93-2.734-1.55-4.317-1.702-.458-.046-.63-.165-.483-.653 2.982-9.982 4.934-20.306 8.781-29.991 4.744-11.941 12.724-21.092 23.413-27.682 5.119-3.16 10.282-6.248 15.42-9.375.388-.238.706-.594 1.157.02 3.103 4.209 6.626 8.075 9.347 12.587 3.758 6.235 6.022 13.083 7.688 20.181.159.667.292 1.346.528 1.986.4 1.069 1.557 1.715 2.537 1.504 1.125-.244 1.888-1.214 1.876-2.434-.013-1.267-.445-2.46-.744-3.668-1.876-7.547-4.477-14.785-8.636-21.336-.667-1.042-1.392-2.032-2.162-3.147z" fill="#FF8F00"/><path d="M96.546 56.458c1.864 3.065 4.439 7.292 6.296 13.21.396 1.268 1.316 4.59 3.148 11.228 1.416 5.139.931 3.481 1.259 4.624 2.008 7.014 2.94 8.659 2.719 9.947a2.527 2.527 0 0 1-.201.62c-1.561 3.653-8.316 2.887-8.738 2.761-.158-.046-.302-.099-.302-.099a4.686 4.686 0 0 1-.554-.297.67.67 0 0 1-.139-.106c-.189-.185-.22-.436-.227-.469-.056-.303-2.977-11.162-7.032-26.227 0 0-2.606-13.058-10.702-26.42a44.614 44.614 0 0 0-3.777-5.284c-3.419-4.048-6.34-5.878-6.296-5.944.101-.145 15.5 7.596 24.546 22.456z" fill="#D46613"/><path d="M60.75 121H13.817c-2.492 0-4.583-.859-6.052-2.416-1.227-1.299-1.894-3.485-1.951-3.647-.4-1.205-.534-2.24-.636-2.998-.102-.798-.242-1.874-.146-3.254.076-1.11.14-2.058.597-3.161.84-2.023 2.359-3.031 2.886-3.39 1.933-1.306 3.605-1.536 5.505-.108 2.429 1.827 5.041 2.531 7.953 1.726 1.182-.332 2.212-.988 3.216-1.712 1.901-1.367 3.395-1.361 5.302-.021 3.98 2.795 7.222 2.795 11.163 0 1.894-1.34 3.413-1.346 5.308-.006 3.98 2.808 7.151 2.821 11.15-.014 1.799-1.279 3.521-1.265 5.314.02 3.941 2.822 7.158 2.788 11.15-.013 1.888-1.327 3.395-1.32 5.308.027 3.903 2.761 7.17 2.761 11.055.013 1.951-1.38 3.458-1.414 5.403.014 3.706 2.727 7.368 2.693 11.067-.02 1.997-1.462 3.586-1.212 5.601.142 1.615 1.082 2.409 2.53 2.74 3.16.858 1.597 1.055 3.031 1.15 3.742.363 2.788-.368 4.933-.515 5.345-.934 2.633-2.593 4.094-3 4.439-.49.413-2.257 1.909-4.774 2.098-.464.034-.935.027-1.405.027-15.479.007-30.97.007-46.456.007z" fill="#fff"/><path d="M117.996 111.051c-.084 3.054-1.581 5.212-2.186 6.087-.15.217-.332.482-.593.787 0 0-.156.19-.318.36-1.191 1.269-2.968 2.063-2.968 2.07a8.565 8.565 0 0 1-1.412.495c-.28.068-.645.142-.768.149-1.048.061-2.18-3.291-3.391-6.67-.996-2.783-1.907-5.599-2.877-8.388-.117-.332-.188-.685-.292-1.024 0 0-.254-.781-.176-.815l.039-.006.091-.014c.072-.014.306-.041.371-.047.156-.021.28-.041.462-.082.046-.007.176-.041.456-.115.201-.055.397-.109.585-.17.17-.054.443-.163.846-.346.69-.319.944-.523 2.148-1.242.976-.59 1.211-.699 1.477-.787.319-.115.775-.271 1.321-.292 1.185-.034 2.103.625 3.261 1.452.501.36.787.625.931.774.501.495.8.95 1.047 1.337.157.237.625.984 1.022 1.954.326.781.983 2.396.924 4.533z" fill="#E2E1E1"/><path d="M61.093 6.014c1.02 0 2.034-.026 3.054.007 3 .087 4.763 3.074 3.368 5.914-1.752 3.561-3.669 7.028-5.537 10.522-.381.714-1.537.727-1.918.02-1.886-3.527-3.834-7.02-5.592-10.622-1.346-2.747.357-5.7 3.233-5.827 1.13-.054 2.261-.014 3.392-.014z" fill="#FF8F00"/><path d="M84.998 72.597c-.056 1.365-1.244 2.475-2.57 2.4-1.383-.076-2.481-1.235-2.426-2.566.062-1.482 1.175-2.503 2.66-2.427 1.41.069 2.391 1.158 2.336 2.593zM26.579 115.991c-3.771 0-7.543.024-11.314-.006-3.59-.031-6.163-2.306-6.263-5.474-.044-1.393.671-2.299 1.964-2.484 1.255-.178 2.284.524 2.51 1.886.213 1.258.941 1.554 2.102 1.554 7.543-.025 15.086-.019 22.635-.007 1.864 0 2.88.9 2.78 2.41-.069 1.017-.627 1.689-1.613 1.96-.47.13-.985.161-1.48.161-3.778.006-7.55 0-11.321 0zM48.55 116.999c-1.34.041-2.5-1.065-2.548-2.419a2.475 2.475 0 0 1 2.374-2.578c1.437-.061 2.617 1.052 2.624 2.461.007 1.347-1.105 2.502-2.45 2.536z" fill="#020203"/><path d="M49.977 38.173c.38.69-3.933 3.165-11.649 11.224-5.434 5.68-7.628 8.978-8.195 8.569-.686-.503 1.321-6.283 5.154-10.97 5.796-7.08 14.185-9.735 14.69-8.823zM56.847 9.632c-.382 1.928.587 3.235.297 3.359-.363.154-2.506-1.644-2.09-3.53.368-1.685 2.617-2.667 2.914-2.424.225.183-.804.975-1.12 2.595z" fill="#FBCA71"/><path d="M65.842 12.176c.807-2.864.732-4.118 1.16-4.174.36-.05.87.755.978 1.473.151 1.035-.574 1.241-1.652 3.587-.246.637-.499 1.005-.77 1.448-.158.262-.057.112-.8 1.44 0 0-.152.27-.398.619-.12.174-.322.449-.353.43-.044-.025.138-.418.283-.73.095-.206.757-1.672 1.155-2.783.157-.455.246-.78.397-1.31z" fill="#D46613"/><path d="M31.133 83.932c-1.7.304-2.541.502-4.204 1.018-.41.125-.929.033-.929-.463 0-.25.07-.502.48-.634.158-.053.342-.376.342-.793 0-3.904.006-5.852.006-9.75 0-.435-.177-.647-.341-.6-.411.132-.48-.073-.48-.317 0-.496.518-.826.928-.952 2.27-.7 3.433-.951 5.765-1.255.493-.066.885-.145 1.27-.178.589-.053.867.158.867.693 0 .403.019.687-.076 1.493-.145 1.229-.5 1.434-.72 1.453-.519.047-.5-1.023-.923-1.657-.405-.615-1.252-.417-2.276-.225-.474.086-.714.139-1.182.244-.38.086-.436.271-.436.674v3.99s.796-.621 2.465-.885c1.909-.304 4.311.535 4.311 3.336-.013 3.375-3.04 4.485-4.867 4.808zm-.291-6.744c-.84.159-1.618.456-1.618.931v4.466c0 .343.164.396.436.337.563-.126.84-.179 1.403-.284 1.372-.245 2.295-1.328 2.295-3.118 0-1.962-.999-2.61-2.516-2.332zM48.032 87.983c-.588-.182-.6-1.737-.917-2.45-.271-.62-.549-.707-1.459-.922-2.13-.499-3.208-.667-5.37-.835-.6-.047-1.266-.08-1.472.458-.4.996-.53 2.16-1.097 2.153-.698-.006-.717-1.864-.717-3.203 0-.7.323-.842.717-.842.187 0 .606-.067.832-.316.717-.814 1.55-2.16 2.001-6.535.117-1.023.136-1.912.136-2.403 0-1.77-.678-1.925-.885-1.938-.432-.027-.47-.263-.47-.512 0-.485.51-.673 1-.633 2.924.236 4.383.498 7.23 1.333.42.121.968.458.968.962 0 .256-.071.458-.49.33-.162-.054-.35.169-.35.613 0 3.964-.006 5.95-.006 9.914 0 .66.368.774.549.828.42.134.768.195.768.773 0 1.63-.252 3.44-.968 3.225zm-2.789-15.346c0-.41-.052-.6-.445-.68a33.484 33.484 0 0 0-2.298-.404c-.413-.06-.471.115-.471.519 0 .834-.11 3.439-.381 5.337-.388 2.719-1.13 4.469-1.66 5.034 1.93.135 2.893.27 4.797.667.394.08.445-.061.445-.451.007-4.005.007-6.01.013-10.022z" fill="#020203"/></svg>
